packages/foundations/assets/icons/functional/images/human/hand_washing_28.svg

<svg width="28" height="28" viewBox="0 0 28 28" fill="none" xmlns="http://www.w3.org/2000/svg">
<g clip-path="url(#clip0_185_1138)">
<path fill-rule="evenodd" clip-rule="evenodd" d="M19.5416 16.1885C21.1453 16.1885 22.7083 16.678 24.023 17.588C24.8996 18.1946 25.5252 18.6614 25.8999 18.9885C26.2865 19.2784 26.3649 19.8269 26.0749 20.2135C25.8073 20.5703 25.2709 20.6843 24.9418 20.4489C24.7225 20.292 24.1474 19.8635 23.2166 19.1635C22.2271 18.4213 21.0378 17.9974 19.8061 17.9442L16.6788 17.9385C16.0202 17.9385 15.4461 18.3867 15.2863 19.0257C15.2149 19.3115 15.3996 19.6431 15.7386 19.6885H19.2499C19.7332 19.6885 20.1249 20.0802 20.1249 20.5635C20.1249 21.0122 19.763 21.4337 19.2499 21.4385H15.8026C15.0491 21.4282 14.7505 21.2764 13.0213 20.5635C12.5485 20.3686 11.6979 20.0304 10.4695 19.549C9.48454 19.1646 8.37081 19.3166 7.52494 19.951C7.38838 20.0534 7.32152 20.3713 7.60476 20.4887C7.78768 20.5646 9.92442 21.3416 14.015 22.8197C14.59 23.0288 15.1926 23.1504 15.8026 23.1809L20.3068 23.1885C20.7217 23.1885 21.1357 23.2213 21.5451 23.2865L25.5465 24.0805C26.0204 24.1753 26.3277 24.6362 26.2329 25.1101C26.1449 25.5501 25.7131 25.8879 25.2033 25.7965L21.508 25.0574C21.2114 24.9981 20.9109 24.9609 20.609 24.9459L16.1082 24.9385C15.305 24.9385 14.5073 24.8156 13.7426 24.5748L7.00671 22.1334C6.63092 21.9967 6.30304 21.7536 6.06312 21.4337C5.3808 20.5239 5.56518 19.2333 6.47494 18.551C7.74478 17.5986 9.39846 17.3375 10.8934 17.8416C12.6565 18.5268 13.5381 18.8695 13.5381 18.8695C13.7426 17.339 15.1805 16.1885 16.6249 16.1885H19.5416ZM9.62494 14.4385C10.1082 14.4385 10.4999 14.8302 10.4999 15.3135C10.4999 15.7967 10.1082 16.1885 9.62494 16.1885C9.14169 16.1885 8.74994 15.7967 8.74994 15.3135C8.74994 14.8302 9.14169 14.4385 9.62494 14.4385ZM12.9062 13.7822C13.3894 13.7822 13.7812 14.174 13.7812 14.6572C13.7812 15.1405 13.3894 15.5322 12.9062 15.5322C12.4229 15.5322 12.0312 15.1405 12.0312 14.6572C12.0312 14.174 12.4229 13.7822 12.9062 13.7822ZM6.34369 13.7822C6.82694 13.7822 7.21869 14.174 7.21869 14.6572C7.21869 15.1405 6.82694 15.5322 6.34369 15.5322C5.86044 15.5322 5.46869 15.1405 5.46869 14.6572C5.46869 14.174 5.86044 13.7822 6.34369 13.7822ZM9.62494 11.8135C10.1082 11.8135 10.4999 12.2052 10.4999 12.6885C10.4999 13.1717 10.1082 13.5635 9.62494 13.5635C9.14169 13.5635 8.74994 13.1717 8.74994 12.6885C8.74994 12.2052 9.14169 11.8135 9.62494 11.8135ZM12.2499 10.9385C12.7332 10.9385 13.1249 11.3302 13.1249 11.8135C13.1249 12.2967 12.7332 12.6885 12.2499 12.6885C11.7667 12.6885 11.3749 12.2967 11.3749 11.8135C11.3749 11.3302 11.7667 10.9385 12.2499 10.9385ZM6.99994 10.9385C7.48319 10.9385 7.87494 11.3302 7.87494 11.8135C7.87494 12.2967 7.48319 12.6885 6.99994 12.6885C6.51669 12.6885 6.12494 12.2967 6.12494 11.8135C6.12494 11.3302 6.51669 10.9385 6.99994 10.9385ZM9.18744 2.18849C11.2999 2.18849 13.0239 3.85207 13.1207 5.94063L13.1249 8.31349C13.1249 9.23605 12.4041 10.0635 11.3749 10.0635H7.87494C6.95237 10.0635 6.19654 9.3496 6.12974 8.44409L6.12494 7.92029C6.12494 7.65674 5.95774 7.43849 5.68744 7.43849H2.62494C2.14169 7.43849 1.74994 7.04674 1.74994 6.56349C1.74994 6.11476 2.11429 5.68849 2.62494 5.68849H5.68744C6.84724 5.68849 7.79622 6.59108 7.87029 7.73216L7.87494 8.31349H11.3749V6.12599C11.3749 4.96619 10.4723 4.0172 9.33127 3.94314L2.62494 3.93849C2.14169 3.93849 1.74994 3.54674 1.74994 3.06349C1.74994 2.61476 2.13974 2.18849 2.62494 2.18849H9.18744Z" fill="#1A1C1F"/>
</g>
<defs>
<clipPath id="clip0_185_1138">
<rect width="28" height="28" fill="white"/>
</clipPath>
</defs>
</svg>

<svg xmlns="http://www.w3.org/2000/svg" width="28" height="28" fill="none"><g clip-path="url(#a)"><path fill="#1A1C1F" fill-rule="evenodd" d="M19.542 16.189c1.603 0 3.166.489 4.481 1.399q1.315.91 1.877 1.4c.387.29.465.839.175 1.226-.268.356-.804.47-1.133.235q-.33-.236-1.725-1.286a6.12 6.12 0 0 0-3.41-1.219l-3.128-.005c-.659 0-1.233.448-1.393 1.087a.54.54 0 0 0 .453.663h3.51a.875.875 0 1 1 0 1.75h-3.446c-.754-.01-1.053-.163-2.782-.875q-.709-.293-2.552-1.015a3.06 3.06 0 0 0-2.944.402c-.137.102-.203.42.08.538q.275.114 6.41 2.33c.575.21 1.178.331 1.788.362l4.504.008q.624 0 1.238.098l4.002.794a.875.875 0 1 1-.344 1.716l-3.695-.74a6 6 0 0 0-.899-.111l-4.5-.008c-.804 0-1.602-.122-2.366-.363l-6.736-2.442a2.06 2.06 0 0 1-.532-3.582 4.8 4.8 0 0 1 4.418-.71l2.645 1.028c.205-1.53 1.643-2.68 3.087-2.68zm-9.917-1.75a.875.875 0 1 1 0 1.75.875.875 0 0 1 0-1.75m3.281-.657a.875.875 0 1 1 0 1.75.875.875 0 0 1 0-1.75m-6.562 0a.875.875 0 1 1 0 1.75.875.875 0 0 1 0-1.75m3.28-1.969a.875.875 0 1 1 .001 1.75.875.875 0 0 1 0-1.75m2.626-.875a.875.875 0 1 1 0 1.75.875.875 0 0 1 0-1.75m-5.25 0a.875.875 0 1 1 0 1.75.875.875 0 0 1 0-1.75m2.187-8.75a3.94 3.94 0 0 1 3.934 3.753l.004 2.372c0 .923-.72 1.75-1.75 1.75h-3.5A1.75 1.75 0 0 1 6.13 8.445l-.005-.524c0-.263-.167-.482-.438-.482H2.625a.875.875 0 1 1 0-1.75h3.062c1.16 0 2.11.903 2.183 2.044l.005.581h3.5V6.126c0-1.16-.903-2.109-2.044-2.183l-6.706-.005a.875.875 0 0 1-.875-.875c0-.448.39-.875.875-.875z" clip-rule="evenodd"/></g><defs><clipPath id="a"><path fill="#fff" d="M0 0h28v28H0z"/></clipPath></defs></svg>
